X: 2327
T: MISS BROWN
%R: hornpipe, reel
B: James Kerr "Merry Melodies" v.2 p.36 #327
Z: 2016 John Chambers <jc:trillian.mit.edu>
M: C
L: 1/8
K: D
(3(uGFE) |\
D2D2 DFAF | dFAF dFAF|\
E2E2 EGBG | edcB AGFE |\
D2D2 DFAF | dFAF GFED |\
FAdg faeg | f2d2 d2 :|
|: (uag) |\
fddd fdad | fgaf d2 [1 (ed) |\
cAAA cAeA | cdef g2 :|[2 (ef) |\
gbag fedc | e2d2 d2 :|
